X: 11769
T: Elizabeth Clare
R: waltz
M: 3/4
K: Gmajor
D GA|B3 c BG|A2 B2 AG|G2 E2 D2|D3 D GA|
B2 d2 e2|d3 B G2|d2 c2 B2|A3|
D GA|B3 c BG|A2 B2 AG|G2 E2 D2|D3 D GA|
B2d2e2|d3 c B2|A2 G2 F2|G3||
A Bd|e2 d3 B|c2 B3 c|d2 c2 B2|A3 G AB|
c3 c dc|B3 B cB|A2 G2 E2|D3 D GA|
B3 c BG|A2 B3 A|G2 E2 D2|D3 D GA|
B2 d2 e2|d3 cB2|A2 G2 F2|G3||

